PortableApps/LibreOfficePortable/App/libreoffice/help/media/icon-themes/cmd/sc_mailmergeemaildocuments.svg

<svg viewBox="0 0 16 16" xmlns="http://www.w3.org/2000/svg"><path d="m1 0c-.554 0-1 .446-1 1v14c0 .554.446 1 1 1h10c.554 0 1-.446 1-1h-1-9-1v-1-10-3h10v2h1v-2c0-.554-.446-1-1-1z" fill="#808080"/><g fill="#fff"><path d="m1 1v3c0-.554.446-1 1-1h9v-2z"/><path d="m3 5h12v8h-12z"/><path d="m6 5c0 .554-.446 1-1 1h-2v7h12v-8z"/></g><g fill="#4d82b8"><path d="m11 6h3v3h-3z"/><path d="m4 9h6v1h-6z"/><path d="m5 11h4v1h-4z"/><path d="m3 4c-.554 0-1 .446-1 1v8c0 .554.446 1 1 1h12c.554 0 1-.446 1-1v-8c0-.554-.446-1-1-1zm0 1h12v8h-12z"/></g></svg>

<svg viewBox="0 0 16 16" xmlns="http://www.w3.org/2000/svg">
  <path
     style="fill:#808080"
     d="M 1 0 C 0.446 0 0 0.446 0 1 L 0 15 C 0 15.554 0.446 16 1 16 L 11 16 C 11.554 16 12 15.554 12 15 L 11 15 L 2 15 L 1 15 L 1 14 L 1 4 L 1 1 L 11 1 L 11 3 L 12 3 L 12 1 C 12 0.446 11.554 0 11 0 L 1 0 z "
     />
  <path
     style="fill:#ffffff"
     d="M 1 1 L 1 4 C 1 3.446 1.446 3 2 3 L 11 3 L 11 1 L 1 1 z "
     />
  <path
     style="fill:#ffffff"
     d="m 3,5 h 12 v 8 H 3 Z"
     />
  <path
     style="fill:#ffffff"
     d="M 6,5 C 6,5.554 5.554,6 5,6 H 3 v 7 H 15 V 5 Z"
     />
  <g
     style="fill:#4d82b8"
     >
    <path
       d="m 11,6 h 3 v 3 h -3 z"
       />
    <path
       d="m 4,9 h 6 v 1 H 4 Z"
       />
    <path
       d="m 5,11 h 4 v 1 H 5 Z"
       />
    <path
       d="M 3,4 C 2.446,4 2,4.446 2,5 v 8 c 0,0.554 0.446,1 1,1 h 12 c 0.554,0 1,-0.446 1,-1 V 5 C 16,4.446 15.554,4 15,4 Z m 0,1 h 12 v 8 H 3 Z"
       />
  </g>
</svg>
